!!!OTL: 1220c. Zehn Gaens' im Haberstroh.
!!!ARE: Europa, Mitteleuropa, Deutschland, Westfalen
!!!SCT: K1220
!!!TXL: @@DE
!!!YEM: Copyright 1995, estate of Helmut Schaffrath.
**kern	**text
*clefG2	*
*M2/4	*
*k[b-]	*
*F:	*
{4cc	Ʒehn
=1	=1
8a	Gäns
8f	im
8g	Ha-
8e	-ber-
=2	=2
4f	-ſtroh,
8r}	.
{16aL	ſie
16b-J	.
=3	=3
4cc	ſa-
8a	-ßen,
16aL	ſie
16b-J	.
=4	=4
4cc	fra-
8a}	-ßen
{8b-	und
=5	=5
8cc	wa-
8a	-ren
8b-	al-
8g	-le
=6	=6
4f;}	froh,
{4cc	ʒehn
=7	=7
8a	Gäns
8f	im
8g	Ha-
8e	-ber-
=8	=8
4f;}	-ſtroh.
==	==
!!!AGN: Kinder - Lied, Tier - Maerchen
!!!ONB: ESAC (Essen Associative Code) Database: KINDER
!!!AMT: simple duple
!!!AIN: vox
!!!EED: Helmut Schaffrath
!!!EEV: 1.0
!!Aus Westfalen und dem Nassauerlande.
!!!GTL: VIII. Lustige geschichten. [Thiermaerchen, Neck- und Luegenmaerchen und Zaehlgeschichten.]
!!!URL-scan: https://archive.org/details/DeutschesKinderliedUndKinderspiel/page/243/mode/1up
!!!ENC: Anna Maria Matuszewska
!!!EEV: 2024/30/08
*-	*-
